X:1
T:Contre raison
T:Contre raison
T:Clement Janequin
T:Source : Trium vocum cantiones---Nürnberg---J.Petreius---1541. Editor : André Vierendeels (10/10/16).
T:Notes : Original clefs : C2, C3, F3 Editorial accidentals above the staff Original note values have been halved Square bracket indicates ligature Signed "Gero" in T part book
T:©
T:©
T:©
T:©
T:©
C:Clement Janequin
Z:©
%%score [ 1 2 3 ]
L:1/8
Q:1/4=96
M:2/2
K:F
V:1 treble nm="Alto" snm="A"
V:2 treble-8 nm="Tenor 1" snm="T 1"
V:3 treble-8 nm="Tenor 2" snm="T 2"
V:1
 D6 D2 | F4 B,CDE | F2 G2 A4 | z2 G2 G2 G2 | A6 F2 | G2 A3 G F2- | F2 ED E4 | F8 | z2 F2 F2 E2 | %9
w: Con- tre|rai- * * * *|* * son,|vous me fai-|* tes|fort es- * tren-||ge,|es- se bien|
 D2 A2 A2 A2 | G2 F2 GFGA | B3 A G2 F2- | F2 ED E4 | D4 z2 B,2 | B,2 B,2 G,2 G,2 | B,3 C DE F2 | %16
w: faict, en au- rez|vous lou- en- * * *|||ge, d'ain-|si ma- voir sou-|dain _ _ _ _|
 DEFG A4 | F3 G A2 B2- | BA F2 G4 |[M:3/2] F8 z4 | D4 D4 D4 | C2 D2 E2 F2 G2 A2 | B8 A4 | %23
w: _ _ _ _ _|des- * * he-|* * * ri-|té|de vo- stre'a-|mour, _ _ _ _ _|sans l'a-|
 G4 F6 E2 | E4 D8 |[M:2/2] C2 G2 G2 G2 | E4 F4 | z2 F2 F2 E2 | D2 A2 A2 A2 | G2 F2 GFGA | %30
w: voir me- *|ri- *|té? Vous faict il|mal, _|sans vous ser-|vir, sans vous ser-|vir me ren- * * *|
 B3 A G2 F2- | F2 ED E4 | D4 z2 F2 | F2 F2 E2 A2 | A2 A2 GFGA | B3 A G2 F2- | F2 ED E4 | D8 |] %38
w: ||ge, sans|vous ser- vir, sans|vous ser- vir _ _ _|me _ _ ren-||ge?|
V:2
 z8 | d8 | d4 f4 | e4 z2 e2 | e2 e2 f3 e | c2 c2 d4 | c8 | z4 z2 d2 | d2 d2 A4 | z2 c2 cBcd | %10
w: |Con-|tre rai-||* * * tes|fort es- tren-|ge,|es-|se bien faict|en au- * * *|
 e2 f2 e2 d2 | g3 f e2 d2 |"^#" c2 d4 c2 | d8- | d8 | z2 d4 d2 | f4 c2 c2 | d3 e f2 g2- | %18
w: * rez vous lou-|en- * * *||ge,|_|d'ain- si|m'a- voir sou-|dain des- he- *|
 g2 f4 e2 |[M:3/2] f8 z4 | f4 f4 f4 | e8 d4 | g8 f4 | e4 d6 c2 |"^-natural" c8 B4 |[M:2/2] c8 | %26
w: * * ri-|té|de vo- stre'a-|mour, sans|l'a- voir|me- * *|ri- *|té?|
 z4 z2 d2 | d2 d2 A4 | z2 c2 c3 d | e2 f2 e2 d2 | g3 f e2 d2 |"^#" c2 d4 c2 | d2 d2 d2 d2 | %33
w: Vous|faict il mal,|sans vous ser-|vir me ren- *|||ge, sans vous ser-|
 c2 c2 c3 d | e2 f2 e2 d2 | g3 f e2 d2 |"^#" c2 d4 c2 | d8 |] %38
w: vir, sans vous ser-|vir me ren- *|||ge?|
V:3
 z4 d4- | d2 d2 f4 | B3 A/G/ F4 | c4 z2 c2 | c2 c2 d2 f2- | f2 e2 f4 | g8 | z2 d2 d2 d2 | %8
w: Con-|* tre rai-||son, vous|me fai- tes fort|_ es- tran-|ge|es- se bien|
 G2 d2 d2 c2 | B2 A2 FGAB | c2 d2 c2 B2 | G4 c2 d2 | A2 B2 A4 | z2 B2 B2 B2 | G2 G2 B3 c | %15
w: faict, en au- rez|vous lou- en- * * *|||* * ge,|d'ain- si m'a-|voir sou- dain _|
 de f4 F2- | F2 B3 A/G/ A2 | B4 A2 G2 | d4 c4 |[M:3/2] d4 d4 d4 | B6 A2 F2 G2 | A2 B2 c4 G4 | %22
w: _ _ _ des-|* he- * * *||ri- té|de vo- stre'a-|mour, _ _ _|_ _ _ _|
 G8 A4 | c4 d4 B4 | c4 G8 |[M:2/2] c4 z2 c2 | c2 c2 A2 B2- | Bc d4 c2 | B2 A2 FGAB | c2 d2 c2 B2 | %30
w: sans l'a-|voir me- *|* ri-|té? Vous|faict il mal _|_ _ _ sans|vous ser- vir _ _ _|_ _ _ _|
 G4 c2 d2 | A2 B2 A4 | z2 B2 B2 B2 | A6 F2 | c2 d2 c2 B2 | G4 c2 d2 | A2 B2 A4 | d8 |] %38
w: |me ren- ge,|sans vous ser-|vir me|ren- * * *|ge, me ren-||ge?|

